!!!OTL: "Zwei Frauen" EIN RITTER ZOG INS MORGENLAND
!!!ARE: Europa, Mitteleuropa, Deutschland
!!!SCT: Z1025
!!!YEM: Copyright 1995, estate of Helmut Schaffrath.
**kern
*ICvox
*Ivox
*M6/8
*k[f#]
*e:
{8ee
=1
8.ee
16ff#
8ee
4ddn
8ccn
=2
4b
8b
8.ccn
16b
8a
=3
4b
8a
4gn}
{16b
16ccn
=4
4ddn
8gn
4.a
=5
4gn
4.r}
{8b
=6
8.b
16ccn
8b
4a
8gn
=7
4f#
8f#
8.gn
16f#
8e
=8
4d#
8e
4f#}
{16f#
16gn
=9
4a
8gn
4.f#
=10
4e
4.r}
==
!!!AGN: Romanze, Ballade, Maria, geistlich, Sage
!!!ONB: ESAC (Essen Associative Code) Database: ZUCCAL
!!!AMT: compound duple
!!!AIN: vox
!!!EED: Helmut Schaffrath
!!!EEV: 1.0
*-
